!!!OTL: Der verlorene Rosenkranz. / b. Jüngere Melodie.
!!!ARE: Europa, Mitteleuropa, Deutschland
!!!SCT: A0066B
!!!TXL: @@GMH
!!!YEM: Copyright 1995, estate of Helmut Schaffrath.
**kern	**text
*M4/4	*
*met(c)	*
*clefC3	*
*k[b-]	*
*F:	*
=1	=1
2ryy	.
4ryy	.
{4F	Trawt
=2	=2
4A	Hans-
4A	-lein
4B-	übr
4B-	die
=3	=3
4c	hei-
4c	-de
4c}	reit,
{4c	er
=4	=4
4B-	ſchoß
4A	nach
4B-	ei-
4c	-ner
=5	=5
(4B-	tau-
4G	.
4F)}	-ben,
{4c	da
=6	=6
4A	ſtrau-
4A	-chelt
4G	jm
4G	ſein
=7	=7
8F	a-
8F	-pfelgraw
4F	.
4C}	roß
{4A	wol
=8	=8
4A	übr
4F	ein
4.A	fen-
8B-	-chel-
=9	=9
2c	-ſtau-
4B-	-den,
4A	ja
=10	=10
2G	ſtau-
2F}	-den.
==	==
!!!GTL: Balladen und Romanzen (erzählende Volkslieder)
!!!AGN: Romanze, Ballade, Lied
!! Juengere Melodie, zusammengesetzt von M. Franck aus 4 einzelnen
!!    Stellen im 7. Quodlibet des Fasciculus quodl. 1611.
!!!ONB: ESAC (Essen Associative Code) Database: ALTDEU
!!!AMT: simple quadruple
!!!AIN: vox
!!!EED: Helmut Schaffrath
!!!EEV: 1.0
!!!URL-scan: https://rosdok.uni-rostock.de/mcrviewer/recordIdentifier/rosdok_ppn738218359/iview2/phys_0224.iview2?x=-2091.770685579196&y=-185.76643025910016&scale=0.2411630558722919&rotation=0&layout=singlePageLayout
!!!ENC: Anna Maria Matuszewska
!!!EEV: 2024/19/0
*-	*-
